packages/core/src/svgs/tokens/branded/UNFI.svg

<svg width="24" height="24" viewBox="0 0 24 24" fill="none" xmlns="http://www.w3.org/2000/svg">
<path d="M6.16988 6.84863H12.9819L17.1516 11.0182V17.8303L12.9819 22H6.16988L2.00024 17.8303V11.0182L6.16988 6.84863ZM6.92139 8.66678L3.81839 11.7698V17.0789L6.92139 20.1817H12.2304L15.3333 17.0789V11.7698L12.2304 8.66678H6.92139Z" fill="black"/>
<path d="M11.0181 2H17.83L21.9997 6.16964V12.9817L17.83 17.1512H11.0181L6.84839 12.9817V6.16964L11.0181 2ZM11.7695 3.81815L8.66654 6.92114V12.2301L11.7695 15.3331H17.0786L20.1816 12.2301V6.92114L17.0786 3.81815H11.7695Z" fill="#38F997"/>
</svg>

<svg xmlns="http://www.w3.org/2000/svg" width="24" height="24" fill="none" viewBox="0 0 24 24">
    <path fill="#000" d="M6.17 6.849h6.812l4.17 4.17v6.811L12.982 22H6.17L2 17.83v-6.812zm.751 1.818L3.818 11.77v5.309l3.103 3.103h5.31l3.102-3.103v-5.31L12.23 8.668z"/>
    <path fill="#38F997" d="M11.018 2h6.812L22 6.17v6.812l-4.17 4.17h-6.812l-4.17-4.17V6.17zm.752 1.818L8.667 6.921v5.31l3.103 3.102h5.309l3.103-3.103V6.921l-3.103-3.103z"/>
</svg>
